src/img/advantages__telephone.svg

<svg width="160" height="160" fill="none" xmlns="http://www.w3.org/2000/svg">
  <path d="M109.333 0H50.6666C43.3066 0.00866667 37.3419 5.97333 37.3333 13.3333V146.667C37.3419 154.027 43.3066 159.991 50.6666 160H109.333C116.693 159.991 122.658 154.027 122.667 146.667V13.3333C122.658 5.97333 116.693 0.00866667 109.333 0ZM117.333 146.667C117.333 151.085 113.752 154.667 109.333 154.667H50.6666C46.2483 154.667 42.6666 151.085 42.6666 146.667V138.667H117.333V146.667ZM117.333 133.333H42.6666V29.3333H117.333V133.333ZM117.333 24H42.6666V13.3333C42.6666 8.915 46.2483 5.33333 50.6666 5.33333H109.333C113.752 5.33333 117.333 8.915 117.333 13.3333V24Z" fill="#1E89E3"/>
  <path d="M98.6666 13.3334H61.3333V18.6667H98.6666V13.3334zM85.3334 144H74.6667V149.333H85.3334V144zM58.6667 34.6666H48V40H58.6667V34.6666zM74.6667 34.6666H64V40H74.6667V34.6666zM90.6666 45.3334H85.3333V50.6667H90.6666V45.3334zM101.333 40H96V50.6667H101.333V40zM112 34.6666H106.667V50.6666H112V34.6666zM96 82.6667V61.3334H77.3333C69.9733 61.342 64.0087 67.3067 64 74.6667V106.667C64.0087 114.027 69.9733 119.991 77.3333 120H96V98.6667H85.3333V82.6667H96zM85.3333 66.6667H90.6667V77.3334H85.3333V66.6667zM80 114.667H77.3333C72.915 114.667 69.3333 111.085 69.3333 106.667V74.6667C69.3333 70.2484 72.915 66.6667 77.3333 66.6667H80V114.667zM90.6667 104V114.667H85.3333V104H90.6667zM131.717 64.7814L127.947 68.552C134.256 74.88 134.256 85.12 127.947 91.448L131.717 95.2187C140.106 86.807 140.106 73.193 131.717 64.7814z" fill="#1E89E3"/>
  <path d="M139.717 56.7814L135.947 60.552C146.67 71.3004 146.67 88.6997 135.947 99.448L139.717 103.219C152.519 90.3867 152.519 69.6134 139.717 56.7814zM32.0531 68.552L28.2824 64.7814C19.6238 72.9487 18.7917 86.1294 26.9591 94.7881 27.2471 95.0934 27.5438 95.3901 28.2824 95.2187L32.0531 91.448C25.7434 85.12 25.7434 74.88 32.0531 68.552z" fill="#1E89E3"/>
  <path d="M24.0533 60.552L20.2827 56.7814C7.48065 69.6134 7.48065 90.3867 20.2827 103.219L24.0533 99.448C13.3333 88.6987 13.3333 71.3014 24.0533 60.552Z" fill="#1E89E3"/>
</svg>

<svg width="160" height="160" fill="none" xmlns="http://www.w3.org/2000/svg"><path d="M109.333 0H50.667c-7.36.009-13.325 5.973-13.334 13.333v133.334c.009 7.36 5.974 13.324 13.334 13.333h58.666c7.36-.009 13.325-5.973 13.334-13.333V13.333C122.658 5.973 116.693.01 109.333 0zm8 146.667a8 8 0 01-8 8H50.667a8 8 0 01-8-8v-8h74.666v8zm0-13.334H42.667v-104h74.666v104zm0-109.333H42.667V13.333a8 8 0 018-8h58.666a8 8 0 018 8V24z" fill="#1E89E3"/><path d="M98.667 13.333H61.333v5.334h37.334v-5.334zM85.333 144H74.667v5.333h10.666V144zM58.667 34.667H48V40h10.667v-5.333zm16 0H64V40h10.667v-5.333zm16 10.666h-5.334v5.334h5.334v-5.334zM101.333 40H96v10.667h5.333V40zM112 34.667h-5.333v16H112v-16zm-16 48V61.333H77.333c-7.36.009-13.324 5.974-13.333 13.334v32c.009 7.36 5.973 13.324 13.333 13.333H96V98.667H85.333v-16H96zm-10.667-16h5.334v10.666h-5.334V66.667zm-5.333 48h-2.667a8 8 0 01-8-8v-32a8 8 0 018-8H80v48zM90.667 104v10.667h-5.334V104h5.334zm41.05-39.219l-3.77 3.771c6.309 6.328 6.309 16.568 0 22.896l3.77 3.77c8.389-8.411 8.389-22.025 0-30.437z" fill="#1E89E3"/><path d="M139.717 56.781l-3.77 3.771c10.723 10.748 10.723 28.148 0 38.896l3.77 3.771c12.802-12.832 12.802-33.606 0-46.438zM32.053 68.552l-3.77-3.77c-8.66 8.167-9.491 21.347-1.324 30.006.288.305.585.602 1.323.43l3.771-3.77c-6.31-6.328-6.31-16.568 0-22.896z" fill="#1E89E3"/><path d="M24.053 60.552l-3.77-3.77c-12.802 12.831-12.802 33.605 0 46.437l3.77-3.771c-10.72-10.75-10.72-28.147 0-38.896z" fill="#1E89E3"/></svg>
